static/images/cooperative.svg

<?xml version="1.0" encoding="UTF-8"?>
<svg width="273px" height="146px" viewBox="0 0 273 146" version="1.1" xmlns="http://www.w3.org/2000/svg" xmlns:xlink="http://www.w3.org/1999/xlink">
    <!-- Generator: Sketch 64 (93537) - https://sketch.com -->
    <title>Coops</title>
    <desc>Created with Sketch.</desc>
    <defs>
        <rect id="path-1" x="0" y="0" width="273" height="146" rx="8"></rect>
    </defs>
    <g id="Coops" stroke="none" stroke-width="1" fill="none" fill-rule="evenodd">
        <g>
            <mask id="mask-2" fill="white">
                <use xlink:href="#path-1"></use>
            </mask>
            <use id="Rectangle-3-Copy-9" fill="#1F441D" xlink:href="#path-1"></use>
            <path d="M72.2770714,52.6187045 C60.5485749,24.459259 56.5904835,10.1760194 60.402797,9.76898565 C66.1212673,9.1584351 67.5033967,27.6699885 70.8529757,27.6699885 C74.2025548,27.6699885 66.1770786,3.57023295 72.2770714,1.24671759 C78.3770643,-1.07679777 78.1951552,26.4678903 81.3953701,24.5635299 C84.5955849,22.6591695 82.5212263,-5 88.7880777,-5 C95.0549292,-5 88.8807857,24.5635299 93.8864397,24.5635299 C98.8920937,24.5635299 95.8599635,-3.70693905 102.893196,-2.7388207 C109.926429,-1.77070236 101.502784,33.2139382 103.720928,33.2139382 C105.311616,33.2139382 112.478419,25.304165 116.405741,24.4569418 C117.954894,24.1227502 119,24.8874557 119,27.6699885 C119,37.5066362 100.665368,55 86.4712198,55 C77.0084542,55 72.2770714,54.2062348 72.2770714,52.6187045 Z" id="Path-5-Copy-16" fill="#CEC7B1" mask="url(#mask-2)"></path>
            <path d="M215.810966,81.1571462 C191.684213,57.010242 181.281506,43.8846307 184.602845,41.7803122 C189.584852,38.6238346 198.407776,54.5582136 200.31738,52.9896328 C202.226985,51.4210519 186.853135,34.8792763 191.065678,29.5285443 C195.278221,24.1778123 206.367643,45.6341891 208.115294,44.7913575 C209.862946,43.9485259 195.621551,17.5083179 201.308098,14.7658939 C206.994644,12.0234698 215.09914,40.3652856 219.449703,39.3251659 C223.800266,38.2850463 208.602892,13.0378502 215.535928,11.0772559 C222.468964,9.11666167 234.210722,45.1235363 234.210722,45.1235363 C235.654114,44.4274384 236.741668,32.0438576 239.823066,29.3475383 C241.038539,28.2839609 242.422157,28.7090809 244.006036,31.9201116 C249.605273,43.27156 242.926019,71.4822061 230.046236,77.6936784 C221.459713,81.83466 216.714623,82.9891493 215.810966,81.1571462 Z" id="Path-5-Copy-17" fill="#F2BEA4" mask="url(#mask-2)"></path>
            <path d="M97.0646294,110.061267 C97.4791022,79.9949954 99.5372662,65.5629004 103.239122,66.7649822 C108.791905,68.5681048 102.64593,85.732148 105.754939,87.1089427 C108.863948,88.4857373 111.086299,63.5811218 117.68063,64.0053599 C124.274961,64.4295981 113.052207,89.0491338 116.786815,88.6572413 C120.521423,88.2653487 129.695899,62.6157731 135.512659,65.1916692 C141.329419,67.7675653 123.734621,91.73401 128.380764,93.7915097 C133.026907,95.8490093 141.557719,69.257715 147.697304,73.0165561 C153.836889,76.7753972 131.978615,104.677341 134.037449,105.589076 C135.513892,106.242904 145.340225,102.097459 149.325481,102.952175 C150.897486,103.289323 151.560649,104.40447 150.443996,106.899061 C146.496468,115.717792 122.458417,123.864728 109.283707,118.030435 C100.500566,114.140906 96.4275404,111.484517 97.0646294,110.061267 Z" id="Path-5-Copy-18" fill="#C47A42" mask="url(#mask-2)"></path>
            <path d="M27.8702493,147.544564 C17.1327935,111.197002 13.6799124,92.7679765 17.511606,92.2574867 C23.2591464,91.4917519 24.1056803,112 26.4642334,111.342126 C28.8227865,110.684252 22.4815523,86.3498304 28.5041017,82.9782373 C34.5266512,79.6066441 34.9712401,106.834424 36.8727852,106.834424 C38.7743304,106.834424 37.7200559,73 43.9073456,73 C50.0946353,73 44.9303196,105.759708 49.2052726,106.834424 C53.4802256,107.909141 51.0684349,74.8182539 58.0123761,76.2230654 C64.9563172,77.6278769 59.6657652,119.955539 59.6657652,119.955539 C61.2362586,119.955539 67.5612143,107.909141 71.4386767,106.679757 C72.9681621,106.19482 74,107.304465 74,111.342126 C74,125.615832 55.8981383,151 41.8841938,151 C32.5415641,151 27.8702493,149.848188 27.8702493,147.544564 Z" id="Path-5-Copy-23" fill="#E1BA15" mask="url(#mask-2)" transform="translate(45.000000, 112.000000) scale(-1, 1) translate(-45.000000, -112.000000) "></path>
            <path d="M235.564177,148.973537 C253.26848,125.336964 259.469368,113.063628 254.16684,112.153531 C246.21305,110.788385 242.351667,126.841511 241.045079,126.617255 C239.738491,126.393 249.556,105.573785 243.991964,102.449116 C238.427928,99.3244464 231.262317,122.136929 231.279803,122.040399 C231.29729,121.943869 235.032533,95.0782111 228.92469,94.0298936 C222.816847,92.9815761 220.297651,119.853001 219.105668,119.950896 C217.913686,120.048791 220.901138,96.51771 213.887535,96.2179572 C206.873932,95.9182043 207.296057,126.367658 207.296057,126.367658 C205.745729,126.101568 200.863918,117.511581 197.175233,116.087342 C195.720212,115.525543 194.57617,116.043265 194.119684,118.563232 C192.505942,127.471674 207.505512,146.381341 221.339513,148.755735 C230.562181,150.338664 235.303736,150.411265 235.564177,148.973537 Z" id="Path-5-Copy-19" fill="#B8943C" mask="url(#mask-2)"></path>
        </g>
    </g>
</svg>

<svg width="273" height="146" xmlns="http://www.w3.org/2000/svg" xmlns:xlink="http://www.w3.org/1999/xlink"><defs><rect id="a" x="0" y="0" width="273" height="146" rx="8"/></defs><g fill="none" fill-rule="evenodd"><mask id="b" fill="#fff"><use xlink:href="#a"/></mask><use fill="#1F441D" xlink:href="#a"/><path d="M72.28 52.62C60.55 24.46 56.59 10.18 60.4 9.77c5.72-.61 7.1 17.9 10.45 17.9 3.35 0-4.67-24.1 1.43-26.42 6.1-2.33 5.92 25.22 9.12 23.31C84.6 22.66 82.52-5 88.79-5c6.26 0 .1 29.56 5.1 29.56s1.97-28.27 9-27.3c7.04.97-1.39 35.95.83 35.95 1.6 0 8.76-7.9 12.69-8.75 1.54-.34 2.59.43 2.59 3.21C119 37.51 100.67 55 86.47 55c-9.46 0-14.2-.8-14.2-2.38z" fill="#CEC7B1" mask="url(#b)"/><path d="M215.81 81.16c-24.13-24.15-34.53-37.28-31.2-39.38 4.97-3.16 13.8 12.78 15.7 11.21 1.92-1.57-13.46-18.11-9.24-23.46 4.2-5.35 15.3 16.1 17.05 15.26 1.74-.84-12.5-27.28-6.81-30.02 5.68-2.75 13.79 25.6 18.14 24.56 4.35-1.04-10.85-26.3-3.91-28.25 6.93-1.96 18.67 34.04 18.67 34.04 1.44-.7 2.53-13.08 5.61-15.77 1.22-1.07 2.6-.64 4.19 2.57 5.6 11.35-1.08 39.56-13.96 45.77-8.59 4.14-13.34 5.3-14.24 3.47z" fill="#F2BEA4" mask="url(#b)"/><path d="M97.06 110.06c.42-30.07 2.48-44.5 6.18-43.3 5.55 1.8-.6 18.97 2.51 20.35 3.11 1.38 5.34-23.53 11.93-23.1 6.6.42-4.63 25.04-.9 24.65 3.74-.4 12.92-26.04 18.73-23.47 5.82 2.58-11.78 26.54-7.13 28.6 4.65 2.06 13.18-24.53 19.32-20.77 6.14 3.76-15.72 31.66-13.66 32.57 1.47.65 11.3-3.5 15.29-2.64 1.57.34 2.23 1.45 1.11 3.95-3.94 8.82-27.98 16.96-41.16 11.13-8.78-3.89-12.85-6.55-12.22-7.97z" fill="#C47A42" mask="url(#b)"/><path d="M27.87 147.54C17.13 111.2 13.68 92.77 17.51 92.26c5.75-.77 6.6 19.74 8.95 19.08 2.36-.66-3.98-24.99 2.04-28.36 6.03-3.37 6.47 23.85 8.37 23.85 1.9 0 .85-33.83 7.04-33.83 6.18 0 1.02 32.76 5.3 33.83 4.27 1.08 1.86-32.01 8.8-30.6 6.95 1.4 1.66 43.73 1.66 43.73 1.57 0 7.9-12.05 11.77-13.28 1.53-.49 2.56.62 2.56 4.66C74 125.62 55.9 151 41.88 151c-9.34 0-14.01-1.15-14.01-3.46z" fill="#E1BA15" mask="url(#b)" transform="matrix(-1 0 0 1 90 0)"/><path d="M235.56 148.97c17.7-23.63 23.9-35.9 18.6-36.82-7.95-1.36-11.8 14.7-13.11 14.47-1.31-.23 8.5-21.05 2.94-24.17-5.56-3.13-12.73 19.69-12.71 19.59.02-.1 3.75-26.96-2.36-28.01-6.1-1.05-8.62 25.82-9.81 25.92-1.2.1 1.8-23.43-5.22-23.73-7.02-.3-6.6 30.15-6.6 30.15-1.54-.27-6.43-8.86-10.11-10.28-1.46-.56-2.6-.05-3.06 2.47-1.61 8.91 13.39 27.82 27.22 30.2 9.22 1.58 13.96 1.65 14.22.21z" fill="#B8943C" mask="url(#b)"/></g></svg>
